X: 29784
T: O'Boobigan's
R: hornpipe
M: 4/4
K: Gmajor
(3DEF|G2 G2 A2 A>B|c2 B2 A2 D2|B>A G>F E2 E2|A>G F>E D2 D2|
G2 G2 A2 A>B|c2 B2 A2 D2|B>A G>F E>A F>D|G2 B2 G2:|
|:(3def|g2 a>g f2 d2|e>d c>e d4|e2 c>e d2 B2|c>B A>G A2 (3def|
g2 a>g f2 d2|e>d c>e d4|B>A G>F E>A F>D|G2 B2 G2:|

